X:1
T:Title
%%score ( 1 2 ) ( 3 4 )
L:1/8
Q:1/4=76
M:4/4
K:F
V:1 treble nm="Grand Piano, Soprano"
V:2 treble 
V:3 bass nm="Choir Pad, I Am Saved"
V:4 bass 
V:1
 [FA]>[CG] [CF]C [CF][EG] [FA]2 | [Fc]>[Fd] [Fc]2 [FA]>F E-<[Ec] | [FA]>[CG] [CF]C [CF][EG] [FA]2 | %3
w: By~F.~J.~Howard,~1900 * * * * * *|||
 [Fc]>[Fd] c<A [EG]>[CF] [CF]2 | [DF]>F [FB]F [FB][Fd] [Fc]2 | [Fd]>[Fc] [FA][CF] [EG][EG] A<c | %6
w: |||
 F>F [DB][DF] [FB][Fd] [Fc]2 | [FA]>[FA] [EG]2 [Fd]>[Ge] [Ec]2 | [FA]>[CG] [CF]C [CF][EG] [FA]2 | %9
w: |||
 [Fc]>[Fd] [Fc]2 [FA]>F E-<[Ec] | [FA]>[CG] [CF]C [CF][EG] [FA]2 | [Fc]>[Fd] c<A [EG]>[CF] [CF]2- | %12
w: |||
 [CF]4 z4 |] %13
w: |
V:2
 x8 | z4 z2 .G2 | x8 | z2 F2 z4 | x8 | z4 z2 F2 | x8 | x8 | x8 | z4 z2 .G2 | x8 | z2 F2 z4 | x8 |] %13
V:3
 [F,C]>[F,B,] [F,A,][F,A,] [F,A,][C,C] [F,C]2 | [F,A,]>[F,B,] [F,A,]2 [F,C]>[F,A,] [C,C]2 | %2
 [F,C]>[F,B,] [F,A,][F,A,] [F,A,][C,C] [F,C]2 | [F,A,]>[F,B,] A,<C [C,B,]>[F,A,] [F,A,]2 | %4
 [B,,B,]>[B,D] [B,D][B,D] [D,B,][B,,B,] [F,A,]2 | [F,B,]>[F,A,] [F,C][F,A,] [C,C][C,C] C<A, | %6
 F,>F, [B,,F,][B,,B,] [D,B,][B,,B,] [F,A,]2 | [F,C]>[F,C] [G,C]2 [G,=B,]>[G,B,] [C,C]2 | %8
 [F,C]>[F,B,] [F,A,][F,A,] [F,A,][C,C] [F,C]2 | [F,A,]>[F,B,] [F,A,]2 [F,C]>[F,A,] [C,C]2 | %10
 [F,C]>[F,B,] [F,A,][F,A,] [F,A,][C,C] [F,C]2 | [F,A,]>[F,B,] A,<C [C,B,]>[F,A,] [F,A,]2- | %12
 [F,A,]4 z4 |] %13
V:4
 x8 | x8 | x8 | z2 F,2 z4 | x8 | z4 z2 F,2 | x8 | x8 | x8 | x8 | x8 | z2 F,2 z4 | x8 |] %13

